packages/icons/src/assets/bottom-alignment.svg

<svg width="16" height="16" viewBox="0 0 16 16" fill="currentColor" xmlns="http://www.w3.org/2000/svg">
<path d="M15.5 15.0004H0.5V13.7504H15.5V15.0004Z" fill="currentColor"/>
<path d="M8.5752 10.6654L11.1768 6.79626L12.2139 7.49451L8.41309 13.1469L8.39062 13.1781C8.27476 13.3295 8.09538 13.4204 7.90332 13.4232C7.69846 13.4262 7.50492 13.3281 7.38574 13.1615L3.24023 7.36462L4.25684 6.63806L7.3252 10.9271V2.59998H8.5752V10.6654Z" fill="currentColor"/>
</svg>

<svg xmlns="http://www.w3.org/2000/svg" width="16" height="16" viewBox="0 0 16 16"><path d="M15.5 15H.5v-1.25h15zm-6.925-4.335 2.602-3.869 1.037.699-3.8 5.652-.023.031a.625.625 0 0 1-1.005-.017L3.24 7.366l1.017-.727 3.068 4.29V2.6h1.25z"/></svg>
